speaky-school/img/figures-bottom3.svg

<svg width="446" height="338" viewBox="0 0 446 338" fill="none" xmlns="http://www.w3.org/2000/svg">
<path fill-rule="evenodd" clip-rule="evenodd" d="M195 245H5C3.89543 245 3 245.895 3 247C3 248.105 3.89543 249 5 249H195C196.105 249 197 248.105 197 247C197 245.895 196.105 245 195 245ZM5 242C2.23858 242 0 244.239 0 247C0 249.761 2.23857 252 5 252H195C197.761 252 200 249.761 200 247C200 244.239 197.761 242 195 242H5ZM195 285H5C3.89543 285 3 285.895 3 287C3 288.105 3.89543 289 5 289H195C196.105 289 197 288.105 197 287C197 285.895 196.105 285 195 285ZM5 282C2.23858 282 0 284.239 0 287C0 289.761 2.23857 292 5 292H195C197.761 292 200 289.761 200 287C200 284.239 197.761 282 195 282H5ZM5 265H195C196.105 265 197 265.895 197 267C197 268.105 196.105 269 195 269H5C3.89543 269 3 268.105 3 267C3 265.895 3.89543 265 5 265ZM0 267C0 264.239 2.23858 262 5 262H195C197.761 262 200 264.239 200 267C200 269.761 197.761 272 195 272H5C2.23857 272 0 269.761 0 267Z" fill="black"/>
<rect x="-1.5" y="1.5" width="197" height="197" rx="58.5" transform="matrix(-1 0 0 1 443 71)" fill="#FFCC1A" stroke="#FFCC1A" stroke-width="3"/>
<rect x="-2.5" y="2.5" width="171" height="171" rx="47.5" transform="matrix(-1 0 0 1 429 83)" fill="white" stroke="#236967" stroke-width="5"/>
<path d="M117 66.5C117 93.2858 95.2858 115 68.5 115C41.7142 115 20 93.2858 20 66.5C20 39.7142 41.7142 18 68.5 18C95.2858 18 117 39.7142 117 66.5ZM31.0747 66.5C31.0747 87.1694 47.8306 103.925 68.5 103.925C89.1694 103.925 105.925 87.1694 105.925 66.5C105.925 45.8306 89.1694 29.0747 68.5 29.0747C47.8306 29.0747 31.0747 45.8306 31.0747 66.5Z" fill="#FC8B4C"/>
<circle cx="355" cy="303" r="35" fill="#FE7167"/>
<path fill-rule="evenodd" clip-rule="evenodd" d="M355.166 275H346.833V289.941L336.269 279.376L330.376 285.269L340.94 295.833H326V304.167H340.941L330.376 314.732L336.269 320.624L346.833 310.06V325H355.166V310.059L365.731 320.624L371.624 314.732L361.059 304.167H376V295.833H361.06L371.624 285.269L365.731 279.376L355.166 289.941V275Z" fill="white"/>
<path fill-rule="evenodd" clip-rule="evenodd" d="M151 50C164.807 50 176 38.8071 176 25C176 38.8071 187.193 50 201 50C214.807 50 226 38.8071 226 25C226 11.1929 214.807 0 201 0C187.193 0 176 11.1929 176 25C176 11.1929 164.807 0 151 0C137.193 0 126 11.1929 126 25C126 38.8071 137.193 50 151 50Z" fill="#038192"/>
</svg>

<svg width="446" height="338" fill="none" xmlns="http://www.w3.org/2000/svg"><path fill-rule="evenodd" clip-rule="evenodd" d="M195 245H5a2 2 0 1 0 0 4h190a2 2 0 1 0 0-4zM5 242a5 5 0 0 0 0 10h190a5 5 0 0 0 0-10H5zm190 43H5a2 2 0 1 0 0 4h190a2 2 0 1 0 0-4zM5 282a5 5 0 0 0 0 10h190a5 5 0 0 0 0-10H5zm0-17h190a2 2 0 1 1 0 4H5a2 2 0 1 1 0-4zm-5 2a5 5 0 0 1 5-5h190a5 5 0 0 1 0 10H5a5 5 0 0 1-5-5z" fill="#000"/><rect x="-1.5" y="1.5" width="197" height="197" rx="58.5" transform="matrix(-1 0 0 1 443 71)" fill="#FFCC1A" stroke="#FFCC1A" stroke-width="3"/><rect x="-2.5" y="2.5" width="171" height="171" rx="47.5" transform="matrix(-1 0 0 1 429 83)" fill="#fff" stroke="#236967" stroke-width="5"/><path d="M117 66.5c0 26.786-21.714 48.5-48.5 48.5S20 93.286 20 66.5 41.714 18 68.5 18 117 39.714 117 66.5zm-85.925 0c0 20.67 16.756 37.425 37.425 37.425 20.67 0 37.425-16.756 37.425-37.425 0-20.67-16.756-37.425-37.425-37.425-20.67 0-37.425 16.756-37.425 37.425z" fill="#FC8B4C"/><circle cx="355" cy="303" r="35" fill="#FE7167"/><path fill-rule="evenodd" clip-rule="evenodd" d="M355.166 275h-8.333v14.941l-10.564-10.565-5.893 5.893 10.564 10.564H326v8.334h14.941l-10.565 10.565 5.893 5.892 10.564-10.564V325h8.333v-14.941l10.565 10.565 5.893-5.892-10.565-10.565H376v-8.334h-14.94l10.564-10.564-5.893-5.893-10.565 10.565V275z" fill="#fff"/><path fill-rule="evenodd" clip-rule="evenodd" d="M151 50c13.807 0 25-11.193 25-25 0 13.807 11.193 25 25 25s25-11.193 25-25-11.193-25-25-25-25 11.193-25 25c0-13.807-11.193-25-25-25s-25 11.193-25 25 11.193 25 25 25z" fill="#038192"/></svg>
